**kern	**kern	**dynam
*part1	*part1	*part1
*staff2	*staff1	*
*I"Piano	*	*
*clefF4	*clefG2	*
*k[b-e-]	*k[b-e-]	*
=1	=1	=1
8r	16B-KL] 16d] 16g]	.
.	8d 8g	.
!	!	!LO:DY:a
(8CCL 8C	.	>
.	8c 8e- 8g	.
8AAAJ 8AA	.	]
.	[16cJk [16e- [16a	.
=	=	=
4DD 4D	16cKL] 16e-] 16a]	.
.	8c 8e-	.
.	8A 8d	.
8DD)	.	.
.	16AJk 16c	.
*	*clefF4	*
=	=	=
*	*^	*
!	!	!	!LO:DY:a
4.GGG 4.GG	(4B-	8DL 8d	p
.	.	8E-J 8e-	.
*	*v	*v	*
.	8r)	.
=	=	=
*	*^	*
4.FFF#X 4.FF#X	(4A	8C#XL 8c#X	.
.	.	8DJ 8d	.
*	*v	*v	*
.	8r)	.
=	=	=
*	*^	*
(8GGGL 8GG	(8AL 8cn	4D	.
8BBB- 8BB-	8GJ) 8B-	.	.
*	*v	*v	*
8CCJ) 8C	8r	.
=	=	=
*	*^	*
(8.DDL	4A-X	((8GL	.
.	.	8FJ))	.
16BB-L	.	.	.
*	*v	*v	*
16D	8r	.
16FJJ	.	.
*	*clefG2	*
=	=	=
16A-XLL	4.ryy	.
16B-	.	.
16d>	.	.
16f>	.	.
16a-X>	.	.
[16b-JJ>)	.	.
=	=	=
*-	*-	*-
!!!system-decoration: {(s1,s2)}
!!!RDF**kern: > = above
